src/pos-icons/flip-vertical.svg

<svg height="24" viewBox="0 0 24 24" width="24" xmlns="http://www.w3.org/2000/svg"><path d="m3 15v2h2v-2m10 4v2h2v-2m2-16h-14c-1.1 0-2 .9-2 2v4h2v-4h14v4h2v-4c0-1.1-.9-2-2-2m2 16h-2v2c1.1 0 2-.9 2-2m-20-8v2h22v-2m-16 8v2h2v-2m10-4v2h2v-2m-10 4v2h2v-2m-10 0c0 1.1.9 2 2 2v-2z"/></svg>

<?xml version="1.0" encoding="UTF-8"?><!DOCTYPE svg PUBLIC "-//W3C//DTD SVG 1.1//EN" "http://www.w3.org/Graphics/SVG/1.1/DTD/svg11.dtd"><svg xmlns="http://www.w3.org/2000/svg" xmlns:xlink="http://www.w3.org/1999/xlink" version="1.1" id="mdi-flip-vertical" width="24" height="24" viewBox="0 0 24 24"><path d="M3 15V17H5V15M15 19V21H17V19M19 3H5C3.9 3 3 3.9 3 5V9H5V5H19V9H21V5C21 3.9 20.1 3 19 3M21 19H19V21C20.1 21 21 20.1 21 19M1 11V13H23V11M7 19V21H9V19M19 15V17H21V15M11 19V21H13V19M3 19C3 20.1 3.9 21 5 21V19Z" /></svg>
